public/images/svg/001-placeholder-2.svg

<svg xmlns="http://www.w3.org/2000/svg" style="isolation:isolate" viewBox="0 0 512 512"><defs><clipPath id="a"><path d="M0 0h512v512H0z"/></clipPath></defs><g clip-path="url(#a)"><path d="M512.006 254.69c0 81.697-38.273 154.456-97.863 201.322-43.535 34.242-98.452 54.672-158.142 54.672-59.679 0-114.596-20.43-158.131-54.672C38.279 409.157.006 336.398.006 254.69.006 113.302 114.624-1.304 256-1.304c141.388 0 256.006 114.606 256.006 255.994z" fill="#B693CE"/><path d="M415.906 408.191c-105.11-15.648-210.972 23.844-317.584 9.687-15.016-2.235-24.776-9.687-21.773-15.648 21.022-46.199 44.296-97.615 70.575-156.482 3.753-8.196 13.514-13.412 21.772-11.922 58.562 9.687 117.124-17.139 174.934-6.707 7.509 1.49 17.268 10.432 21.023 18.629 26.277 58.122 50.303 110.283 70.574 156.482 3.003 5.961-6.006 7.452-19.521 5.961z" fill="#F3F3F3"/><path d="M111.836 404.465c15.767-44.709 33.786-93.889 54.057-149.775 60.063 8.197 120.877-17.138 180.941-8.196 20.271 54.396 39.041 102.83 55.558 146.794-96.852-11.923-193.704 22.355-290.556 11.177z" fill="#FFF"/><path d="M262.745 245.003h-16.518c4.505 15.648 19.521 49.18 78.833 74.515-10.51 12.668-23.274 25.336-36.789 38.003-58.561-9.687-106.612-17.884-147.155-43.219-4.505 3.725-9.009 6.706-14.265 9.687 42.044 26.08 90.846 35.022 148.656 43.964-13.514 11.922-28.529 23.844-45.047 35.767h25.527c36.038-26.08 65.319-52.906 87.092-76.751 13.514 5.217 30.032 11.177 47.3 18.629l1.501-9.687c-89.343-33.531-119.374-70.789-129.135-90.908z" fill="#F3F3F3"/><path d="M377.616 328.46c-9.76-26.08-20.271-52.905-30.782-81.966-27.029-3.726-54.057-.746-81.837 2.981 11.262 23.099 39.792 49.924 112.619 78.985z" fill="#415A6B"/><path d="M288.272 357.521c14.265-12.667 26.278-26.08 36.789-38.003-51.804-22.354-69.072-49.18-76.581-67.809-27.779 3.726-54.808 6.707-82.586 2.981-7.509 21.609-15.016 41.728-22.524 61.103 39.791 23.844 87.842 32.041 144.902 41.728z" fill="#FFD15C"/><path d="M343.079 326.97c-20.271 22.354-46.548 46.199-78.833 70.789 45.799-5.216 93.099-10.432 138.146-4.471-6.006-16.393-12.763-32.786-18.77-50.67-15.015-5.962-28.53-10.432-40.543-15.648zm-67.57 41.728c-53.306-8.196-98.354-15.648-137.395-37.257-9.76 26.08-18.019 50.67-26.277 73.77 41.293 4.471 81.836 1.49 122.379-2.981 15.015-11.923 28.529-22.355 41.293-33.532z" fill="#66C6B9"/><path d="M334.022 240.532l-74.328 73.77-74.329-73.77c-41.293-40.983-41.293-106.556 0-146.794 41.294-40.984 107.363-40.984 147.906 0 41.294 40.238 41.294 106.556.751 146.794z" fill="#F3705A"/><path d="M190.293 167.508c0-37.836 30.95-68.554 69.072-68.554 38.123 0 69.073 30.718 69.073 68.554 0 37.835-30.95 68.553-69.073 68.553-38.122 0-69.072-30.718-69.072-68.553z" fill="#FFF"/><path d="M209.813 154.095c0 31.296 49.552 61.102 49.552 61.102s49.553-29.806 49.553-61.102c0-14.158-11.262-25.336-25.528-25.336-10.51 0-19.52 6.707-24.025 15.649-3.753-8.942-12.763-15.649-24.025-15.649-14.265 0-25.527 11.178-25.527 25.336z" fill="#F3705A"/><path d="M298.703 151.535c-1.61 1.88-5.993.812-9.782-2.384-3.789-3.196-5.558-7.317-3.948-9.197 1.61-1.881 5.993-.812 9.782 2.384 3.789 3.196 5.558 7.317 3.948 9.197z" fill="#FFF"/></g></svg>

<?xml version="1.0" standalone="no"?><!-- Generator: Gravit.io --><svg xmlns="http://www.w3.org/2000/svg" xmlns:xlink="http://www.w3.org/1999/xlink" style="isolation:isolate" viewBox="0 0 512 512"><defs><clipPath id="_clipPath_hQjIwghkOjG2E7ObyMlyx424Ds21AaUw"><rect width="512" height="512"/></clipPath></defs><g clip-path="url(#_clipPath_hQjIwghkOjG2E7ObyMlyx424Ds21AaUw)"><path d=" M 512.006 254.69 C 512.006 336.387 473.733 409.146 414.143 456.012 C 370.608 490.254 315.691 510.684 256.001 510.684 C 196.322 510.684 141.405 490.254 97.87 456.012 C 38.279 409.157 0.006 336.398 0.006 254.69 C 0.006 113.302 114.624 -1.304 256 -1.304 C 397.388 -1.304 512.006 113.302 512.006 254.69 Z " fill="rgb(182,147,206)"/><path d=" M 415.906 408.191 C 310.796 392.543 204.934 432.035 98.322 417.878 C 83.306 415.643 73.546 408.191 76.549 402.23 C 97.571 356.031 120.845 304.615 147.124 245.748 C 150.877 237.552 160.638 232.336 168.896 233.826 C 227.458 243.513 286.02 216.687 343.83 227.119 C 351.339 228.609 361.098 237.551 364.853 245.748 C 391.13 303.87 415.156 356.031 435.427 402.23 C 438.43 408.191 429.421 409.682 415.906 408.191 Z " fill="rgb(243,243,243)"/><path d=" M 111.836 404.465 C 127.603 359.756 145.622 310.576 165.893 254.69 C 225.956 262.887 286.77 237.552 346.834 246.494 C 367.105 300.89 385.875 349.324 402.392 393.288 C 305.54 381.365 208.688 415.643 111.836 404.465 Z " fill="rgb(255,255,255)"/><path d=" M 262.745 245.003 L 246.227 245.003 C 250.732 260.651 265.748 294.183 325.06 319.518 C 314.55 332.186 301.786 344.854 288.271 357.521 C 229.71 347.834 181.659 339.637 141.116 314.302 C 136.611 318.027 132.107 321.008 126.851 323.989 C 168.895 350.069 217.697 359.011 275.507 367.953 C 261.993 379.875 246.978 391.797 230.46 403.72 L 255.987 403.72 C 292.025 377.64 321.306 350.814 343.079 326.969 C 356.593 332.186 373.111 338.146 390.379 345.598 L 391.88 335.911 C 302.537 302.38 272.506 265.122 262.745 245.003 Z " fill="rgb(243,243,243)"/><path d=" M 377.616 328.46 C 367.856 302.38 357.345 275.555 346.834 246.494 C 319.805 242.768 292.777 245.748 264.997 249.475 C 276.259 272.574 304.789 299.399 377.616 328.46 Z " fill="rgb(65,90,107)"/><path d=" M 288.272 357.521 C 302.537 344.854 314.55 331.441 325.061 319.518 C 273.257 297.164 255.989 270.338 248.48 251.709 C 220.701 255.435 193.672 258.416 165.894 254.69 C 158.385 276.299 150.878 296.418 143.37 315.793 C 183.161 339.637 231.212 347.834 288.272 357.521 Z " fill="rgb(255,209,92)"/><g id="组"><path d=" M 343.079 326.97 C 322.808 349.324 296.531 373.169 264.246 397.759 C 310.045 392.543 357.345 387.327 402.392 393.288 C 396.386 376.895 389.629 360.502 383.622 342.618 C 368.607 336.656 355.092 332.186 343.079 326.97 Z " fill="rgb(102,198,185)"/><path d=" M 275.509 368.698 C 222.203 360.502 177.155 353.05 138.114 331.441 C 128.354 357.521 120.095 382.111 111.837 405.211 C 153.13 409.682 193.673 406.701 234.216 402.23 C 249.231 390.307 262.745 379.875 275.509 368.698 Z " fill="rgb(102,198,185)"/></g><path d=" M 334.022 240.532 L 259.694 314.302 L 185.365 240.532 C 144.072 199.549 144.072 133.976 185.365 93.738 C 226.659 52.754 292.728 52.754 333.271 93.738 C 374.565 133.976 374.565 200.294 334.022 240.532 Z " fill="rgb(243,112,90)"/><path d=" M 190.293 167.508 C 190.293 129.672 221.243 98.954 259.365 98.954 C 297.488 98.954 328.438 129.672 328.438 167.508 C 328.438 205.343 297.488 236.061 259.365 236.061 C 221.243 236.061 190.293 205.343 190.293 167.508 Z " fill="rgb(255,255,255)"/><path d=" M 209.813 154.095 C 209.813 185.391 259.365 215.197 259.365 215.197 C 259.365 215.197 308.918 185.391 308.918 154.095 C 308.918 139.937 297.656 128.759 283.39 128.759 C 272.88 128.759 263.87 135.466 259.365 144.408 C 255.612 135.466 246.602 128.759 235.34 128.759 C 221.075 128.759 209.813 139.937 209.813 154.095 Z " fill="rgb(243,112,90)"/><path d=" M 298.703 151.535 C 297.093 153.415 292.71 152.347 288.921 149.151 C 285.132 145.955 283.363 141.834 284.973 139.954 C 286.583 138.073 290.966 139.142 294.755 142.338 C 298.544 145.534 300.313 149.655 298.703 151.535 Z " fill="rgb(255,255,255)"/></g></svg>
